X:1
T:Old John Tate
M:C
L:1/8
K:Ador
"Am"e2a2a3g| a2g2 edcA|cdcA "G"BcBG|"Am"AcBG AG E2|
"Am"e2a2a3g| a2g2 edcA|cdcA "G"BcBG|"Am"AGEG A4:|
|:"Am"(3AGFE2 E4|A2 AB cd e2|(3AGFE2 E4|"E"AcBG A2A2|
"Am"(3AGFE2 E4|A2 AB cded|e2d2c2 Ac|"Em"BAG2 "Am"A4:|
